packages/ui-icons/svg/Solid/table-row-properties.svg

<svg viewBox="0 0 1920 1920" version="1.1" xmlns="http://www.w3.org/2000/svg">
    <path d="M1694.11765,2.84217094e-14 C1818.69176,2.84217094e-14 1920,101.308235 1920,225.882353 L1920,225.882353 L1920,1694.11765 C1920,1818.69176 1818.69176,1920 1694.11765,1920 L1694.11765,1920 L225.882353,1920 C101.308235,1920 2.84217094e-14,1818.69176 2.84217094e-14,1694.11765 L2.84217094e-14,1694.11765 L2.84217094e-14,225.882353 C2.84217094e-14,101.308235 101.308235,2.84217094e-14 225.882353,2.84217094e-14 L225.882353,2.84217094e-14 Z M1694.34353,1355.29412 L1355.29412,1355.29412 L1355.29412,1694.11765 L1694.34353,1694.11765 L1694.34353,1355.29412 Z M1129.41176,1355.29412 L790.588235,1355.29412 L790.588235,1694.11765 L1129.41176,1694.11765 L1129.41176,1355.29412 Z M564.705882,1355.29412 L225.882353,1355.29412 L225.882353,1694.11765 L564.705882,1694.11765 L564.705882,1355.29412 Z M1129.41176,225.882353 L790.588235,225.882353 L790.588235,564.705882 L1129.41176,564.705882 L1129.41176,225.882353 Z M564.705882,225.882353 L225.882353,225.882353 L225.882353,564.705882 L564.705882,564.705882 L564.705882,225.882353 Z M1694.11765,225.882353 L1355.29412,225.882353 L1355.29412,564.705882 L1694.11765,564.705882 L1694.11765,225.882353 Z" stroke="none" stroke-width="1" fill-rule="evenodd"/>
</svg>

<svg viewBox="0 0 1920 1920" version="1.1" xmlns="http://www.w3.org/2000/svg">
    <path d="M1694.118 0C1818.692 0 1920 101.308 1920 225.882v1468.236c0 124.574-101.308 225.882-225.882 225.882H225.882C101.308 1920 0 1818.692 0 1694.118V225.882C0 101.308 101.308 0 225.882 0h1468.236zm-338.824 1694.118h339.05v-338.824h-339.05v338.824zM790.588 564.706h338.824V225.882H790.588v338.824zm0 1129.412h338.824v-338.824H790.588v338.824zM225.882 564.706h338.824V225.882H225.882v338.824zm0 1129.412h338.824v-338.824H225.882v338.824zM1355.294 564.706h338.824V225.882h-338.824v338.824z" stroke="none" stroke-width="1" fill-rule="evenodd"/>
</svg>
